X: 22818
T: Lansdowne Lass, The
R: reel
M: 4/4
K: Gmajor
GA||.!breath!B2 ge dBGA|{/A} B2 GB AGEG|DGGG ~G2 ^cd|egdB ADGA|
.!breath!B2 ge dBGA|BGGG AGEG|DGGF .!breath!G2 ^cd|gedB ~G3 A||
.!breath!B2 ge dBGA|{/A} B2 BB AGEG|DGGG ~G2 ^cd|egdB ADGA|
.!breath!B2 ge dBGA|BGGG AGEG|DGGF .!breath!G2 ^cd|gedB ~G2 GA||
|:BGGG gGGG|g2 eg dGGG|GFGA BA (3B^cd|eaag .!breath!a2 ga|
bgab geee|.!breath!g2 eg dGGG|~G2 EG DGge|dBAB G2 GA:|

